!!!COM: ingrid-michaelson
!!!OTL: the-way-i-am
!!!RNB: hooktheoryid: dJNgq_B-orz
**kern	**text
*clefG2	*
*k[b-]	*
*M4/4	*
=1	=1
4r	F
8c	.
4c	.
4.A	.
=2	=2
8d	Bbmaj7
4.A	.
2r	.
=3	=3
8r	Dmin7
8F	.
4f	.
4f	.
4d	.
=4	=4
8A	C
4.G	.
2r	.
=5	=5
8.r	F
16F	.
8c	.
4.c	.
8A	.
[8d	.
=6	=6
8d]	Bbmaj7
4.A	.
2r	.
=7	=7
4r	Dmin7
4f	.
4f	.
4d	.
=8	=8
8f	C
4.e	.
4.r	.
8f	.
=9	=9
8f	Bb
8g	.
8a	.
4g	.
4.r	.
=10	=10
8f	C
8g	.
8a	.
8g	.
4f	.
8f	.
[8f	.
=11	=11
8f]	F
4.f	.
8c	.
8A	.
8A	.
[8d	.
=12	=12
8d]	Dmin7
4A	.
2r	.
8f	.
=13	=13
8f	Gm/Bb
8g	.
8a	.
4.g	.
4r	.
=14	=14
4f	Bbm/Db
8g	.
8a-	.
4g	.
4f	.
=15	=15
4.r	F
2f	.
8f	.
=16	=16
1r	F
*-	*-